public/svgs/treehouse.svg

<svg xmlns="http://www.w3.org/2000/svg" width="691" height="313" fill="none" viewBox="0 0 691 313"><path fill="#534741" d="M363.926 233.474h26.234v79.484h-26.234z"/><path fill="#2a7d3d" d="m378.5 71 59.323 181.468H319.177z"/><path fill="#534741" d="M436.828 197.392h29.106v96.566h-29.106z"/><path fill="#2a7d3d" d="m453 0 65.818 220.468H387.182z"/><path fill="#feaf4e" d="M517.301 173H312.414l-97.418 140h204.887z"/><path fill="#ffc95b" d="M313.188 173h204.886l105.923 140H419.11z"/><path fill="#ff881b" d="M398.238 211.415h92.25l47.692 63.17h-92.25zM312.82 173c-19.792 67.684-11.81 102.159 29.362 140h-54.121c-22.133-50.105-5.836-81.939 24.759-140"/><path fill="#534741" d="M26.254 270.266h12.772v42.691H26.254z"/><path fill="#2a7d3d" d="m33.35 183 28.882 97.468H4.468z"/><path fill="#534741" d="M650.254 270.266h12.772v42.691h-12.772z"/><path fill="#2a7d3d" d="m657.35 183 28.882 97.468h-57.764z"/></svg>

<svg width="691" height="313" viewBox="0 0 691 313" fill="none" xmlns="http://www.w3.org/2000/svg">
<rect x="363.926" y="233.474" width="26.234" height="79.4836" fill="#534741"/>
<path d="M378.5 71L437.823 252.468H319.177L378.5 71Z" fill="#2A7D3D"/>
<rect x="436.828" y="197.392" width="29.1064" height="96.5657" fill="#534741"/>
<path d="M453 0L518.818 220.468H387.182L453 0Z" fill="#2A7D3D"/>
<path d="M517.301 173H312.414L214.996 313H419.883L517.301 173Z" fill="#FEAF4E"/>
<path d="M313.188 173H518.074L623.997 313H419.11L313.188 173Z" fill="#FFC95B"/>
<path d="M398.238 211.415H490.488L538.18 274.585H445.93L398.238 211.415Z" fill="#FF881B"/>
<path d="M312.82 173C293.028 240.684 301.01 275.159 342.182 313H288.061C265.928 262.895 282.225 231.061 312.82 173Z" fill="#FF881B"/>
<rect x="26.2539" y="270.266" width="12.7724" height="42.6913" fill="#534741"/>
<path d="M33.3503 183L62.2324 280.468H4.46809L33.3503 183Z" fill="#2A7D3D"/>
<rect x="650.254" y="270.266" width="12.7724" height="42.6913" fill="#534741"/>
<path d="M657.35 183L686.232 280.468H628.468L657.35 183Z" fill="#2A7D3D"/>
</svg>
